X:1
T:Whispering Winds Softly Sighing
T:W. A. Post
T:Whispering Winds Softly Sighing
T:Public Domain
T:Public Domain
T:Public Domain
C:W. A. Post
Z:Public Domain
%%score ( 1 2 ) ( 3 4 )
L:1/8
M:6/8
K:F
V:1 treble 
V:2 treble 
V:3 bass 
V:4 bass 
V:1
 CF[A,CG] Ac[DFAd] | [DFAd]3 [A,CFA]3 | [CEGc]3 [CEG]3 | [CFA]3 [A,CF]3 | CF[A,CG] Ac[DFAd] | %5
w: 1.~Whis- per- ing winds soft- ly|day- light|dy- ing,|Stars thro’|the low- bend- ing heav- ens|
w: 2.~Lul- la- bies ten- der- ly|sweet- ly|tell- ing,|Je- sus|the prom- ised Mes- si- ah,|
w: 3.~Sil- ver- y e- choes are|good news|bring- ing,|Blend- ing|with songs of the an- gels|
 [DFAd]3 [CFA]3 | [EAc]3 [D^G=B]3 | [CEA]3- [CEA]2 z | %8
w: creep; Flut-|ter- ing|wings *|
w: near; Hushed|in- to|won- *|
w: way, Breath-|ing their|sto- *|
"^Soprano & Alto" [GB][FA][EG] [^D^F][EG][B=d] | [Ac]3 [FA]3 | [GB]3 [EG]3 | [^Gd]3 [Ac]3 | %12
w: of the an- gels swift de-|scend- ing,|Beau- ti-|ful chor-|
w: der- ing si- lence, shep- herds|list- en,|Glo- ry|light stream-|
w: ry of glad- ness through the|still- ness,|Hail to|the Sav-|
 [Af][ce][Bd] [Ac][GB][FA] | [DG]3 [B,D]3 | [CE]3 [Ec]3 | F3- F2 z || %16
w: als a- wak- ing earth from|sleep. *|||
w: ing a- round them, bright and|clear. Hail|Him! hail|Him! *|
w: ior most ho- ly, born to-|day. *|||
"^Refrain" (A,A,A,) [A,CD]2 z | ([A,C][A,C][A,C]) [A,CF]2 z | (FFF) [F^Ge]2 [FGd] | %19
w: |||
w: sus * * the|ly. * * Hal-|lu- * * jah, sing|
w: |||
 ([FA][FA][FA]) [FA]2 z | [EGc]3 [DEB]3 | [CEA]3 [B,EG]3 | [A,F]2 [CA] [=B,G]2 [B,D] | %23
w: ||||
w: to * * His|Now and|ev- er-|more the same, Hail|
w: ||||
 (CED [CG]2) z | [CAc]3 [DAd]3 | [EAe]3 [FAf]3 | [A_ea]3 [cec']3 | [Bdb]3- [Bdb]2 z | %28
w: |||||
w: Him * * *|glad- ness,|His pow’r|pro- claim.||
w: |||||
 [F^G=Be]3 [FGBd]2 B | [FAd]3 [FAd]2 C | [CEA]3 [CEG]3 | [A,CF]3- [A,CF]2 z |] %32
w: ||||
w: ||||
w: ||||
V:2
 [A,C]2 [CF]2 x2 | x6 | x6 | x6 | [A,C]2 [CF]2 x2 | x6 | x6 | x6 | x6 | x6 | x6 | x6 | x6 | x6 | %14
w: sigh- ing,||||slow- ly||||||||||
w: swell- ing,||||draw- eth||||||||||
w: ring- ing,||||far a-||||||||||
 x6 | F3- F2 x || C3 x3 | E3 x3 | A3 x3 | c3 x3 | x6 | x6 | x6 | G3- x3 | x6 | x6 | x6 | x6 | x6 | %29
w: |||||||||||||||
w: |Je- *|ho-|le-|un-|Name;||||with||||||
w: |||||||||||||||
 x6 | x6 | x6 |] %32
w: |||
w: |||
w: |||
V:3
 F,,2 C, F,2 C, | (F,,2 C,) (F,2 C,) | (C,,2 C,) (E,2 C,) | (F,,2 C,) (F,2 C,) | F,,2 C, F,2 B,, | %5
 (F,,2 C,) (F,2 C,) | (E,,2 E,) (^G,2 E,) | (A,E,C, A,,2) z | C,,2 C, B,2 C, | (F,,2 C,) (F,2 C,) | %10
 (C,,2 C,) (C2 C,) | (F,,2 C,) (F,2 C,) | F,,2 C, F,2 C, | (B,,2 D,) (G,2 D,) | (C,2 E,) (B,2 E,) | %15
 (F,C,A,, [F,,A,]2) z || ([F,,C,F,][F,,C,F,][F,,C,F,]) [F,,C,F,]2 z | %17
 ([F,,C,F,][F,,C,F,][F,,C,F,]) [F,,C,F,]2 z | ([F,C][F,C][F,C]) [F,=B,]3 | %19
 ([F,C][F,C][F,C]) [F,C]2 z | (C,,C,C,) C,3 | (C,,C,C,) C,3 | [F,,C,]2 [F,,F,] [G,,F,]2 [G,,F,] | %23
 (E,G,F, [C,E,]2) z | (F,,[C,F,A,][C,F,A,]) [C,F,A,]3 | (F,,[C,F,A,][C,F,A,]) [C,F,A,]3 | %26
 (F,,[F,A,_E][F,A,E]) [F,A,E]3 | (B,,[F,B,D][F,B,D] [F,B,D]2) z | (=B,,F,^G,) =B,2 z | %29
 (C,F,A,) C2 z | (C,E,G,) (B,2 E,) | (F,C,A,, F,,2) z |] %32
V:4
 x6 | x6 | x6 | x6 | x6 | x6 | x6 | x6 | x6 | x6 | x6 | x6 | x6 | x6 | x6 | A,3- x3 || x6 | x6 | %18
 x6 | x6 | x6 | x6 | x6 | C,3- x3 | x6 | x6 | x6 | x6 | x6 | x6 | x6 | x6 |] %32

